X:17
T: Ritter und Magd
N: Q0055P
O: Mitteleuropa, Deutschland (BRD) , Westfalen, Hillnhuetten
R: Ballade, Betrug, Schwangerschaft, Tod, Selbstmord, Herr und Magd
M: 6/8
L: 1/16
K: F
C2F4G2 | A4B2c2dcBG | F4
F2f2e2d2 | g2e2c2d6 | c4
c2d4d2 | B4B2f2f2fd | c4
A2d2B2G2 | c2A2F2G6 | F4

@@@ Tune index: 893
